packages/ui/public/icons/wallet-edit.svg

<svg width="22" height="18" viewBox="0 0 22 18" fill="none" xmlns="http://www.w3.org/2000/svg">
<path d="M1 6H21V4.2C21 3.0799 21 2.51984 20.782 2.09202C20.5903 1.7157 20.2843 1.40974 19.908 1.21799C19.4802 1 18.9201 1 17.8 1H4.2C3.0799 1 2.51984 1 2.09202 1.21799C1.7157 1.40973 1.40973 1.71569 1.21799 2.09202C1 2.51984 1 3.0799 1 4.2V11.8C1 12.9201 1 13.4802 1.21799 13.908C1.40973 14.2843 1.71569 14.5903 2.09202 14.782C2.51984 15 3.0799 15 4.2 15H10M13.5 17L15.525 16.595C15.7015 16.5597 15.7898 16.542 15.8721 16.5097C15.9452 16.4811 16.0147 16.4439 16.079 16.399C16.1516 16.3484 16.2152 16.2848 16.3426 16.1574L20.5 12C21.0523 11.4477 21.0523 10.5523 20.5 10C19.9477 9.44772 19.0523 9.44772 18.5 10L14.3426 14.1574C14.2152 14.2848 14.1516 14.3484 14.101 14.421C14.0561 14.4853 14.0189 14.5548 13.9903 14.6279C13.958 14.7102 13.9403 14.7985 13.905 14.975L13.5 17Z" stroke="white" stroke-width="2" stroke-linecap="round" stroke-linejoin="round"/>
</svg>

<svg width="22" height="18" fill="none" xmlns="http://www.w3.org/2000/svg"><path d="M1 6h20V4.2c0-1.12 0-1.68-.218-2.108a2 2 0 0 0-.874-.874C19.48 1 18.92 1 17.8 1H4.2c-1.12 0-1.68 0-2.108.218a2 2 0 0 0-.874.874C1 2.52 1 3.08 1 4.2v7.6c0 1.12 0 1.68.218 2.108a2 2 0 0 0 .874.874C2.52 15 3.08 15 4.2 15H10m3.5 2 2.025-.405c.176-.035.265-.053.347-.085a.994.994 0 0 0 .207-.111c.073-.05.136-.114.264-.242L20.5 12a1.414 1.414 0 1 0-2-2l-4.157 4.157a2.098 2.098 0 0 0-.242.264.994.994 0 0 0-.11.207c-.033.082-.05.17-.086.347L13.5 17Z" stroke="#fff" stroke-width="2" stroke-linecap="round" stroke-linejoin="round"/></svg>
